design/assets/logos/pipelines-bug.svg

<?xml version="1.0" encoding="UTF-8"?>
<svg width="32px" height="32px" viewBox="0 0 32 32" version="1.1" xmlns="http://www.w3.org/2000/svg" xmlns:xlink="http://www.w3.org/1999/xlink">
    <!-- Generator: Sketch 52.6 (67491) - http://www.bohemiancoding.com/sketch -->
    <title>Artboard</title>
    <desc>Created with Sketch.</desc>
    <g id="Artboard" stroke="none" stroke-width="1" fill="none" fill-rule="evenodd">
        <path d="M12.0367053,5.9646894 L22.0735197,16.0015038 L12.0367053,26.0383182 L10.0292697,24.0308826 L18.0586485,16.0015038 L10.0292697,7.972125 L12.0367053,5.9646894 Z M14.0439591,16.0015038 L12.0365235,18.0089394 L10.0294515,16.0015038 L12.0365235,13.9940682 L14.0439591,16.0015038 Z M8.02183412,18.0087576 L10.0292697,20.0161932 L8.02183412,22.0236288 L6.01439852,20.0161932 L4.00732652,18.0087576 L1.99989092,16.001322 L4.00732652,13.9938864 L6.01439852,11.9868144 L8.02183412,9.9793788 L10.0292697,11.9868144 L8.02183412,13.9938864 L6.01439852,16.001322 L8.02183412,18.0087576 Z M16.0512129,1.95 L30.1028985,16.0016856 L16.0512129,30.0530076 L14.0437773,28.045572 L26.0880273,16.0016856 L14.0437773,3.9574356 L16.0512129,1.95 Z" id="bug" fill="#FFAE1A"></path>
    </g>
</svg>

<svg width="32" height="32" xmlns="http://www.w3.org/2000/svg"><path d="M12.037 5.965l10.037 10.037-10.037 10.036-2.008-2.007L18.06 16l-8.03-8.029 2.008-2.007zm2.007 10.037l-2.007 2.007-2.008-2.007 2.008-2.008 2.007 2.008zm-6.022 2.007l2.007 2.007-2.007 2.008-2.008-2.008-2.007-2.007L2 16l2.007-2.007 2.007-2.007 2.008-2.008 2.007 2.008-2.007 2.007L6.014 16l2.008 2.008zm8.03-16.059l14.05 14.052-14.05 14.051-2.008-2.007 12.044-12.044L14.044 3.957 16.05 1.95z" fill="#FFAE1A" fill-rule="evenodd"/></svg>
